X: 1
T: Polska frn Sdra Dalarna
C: Trad
O: efter Olle Wallman
M: 3/4
L: 1/8
K: D
B \
|: "D"A>F D>F A>B | A>G (3FAd f>f | "A7"g>e- e>c A>c |1,3 "G"e>d B/d/B/G/ "A7"A>B :|2,4 "D"d2 d3 :|
A \
|: "D"f>f- fe/f/ g>f | "A7"fe e>c A>F | "G"G>G- GF/G/ B>G |1,3 "D"GF F>A d>e :|2,4 "D"FA d3 :|
